svgs/sharp-solid/mask-snorkel.svg

<svg xmlns="http://www.w3.org/2000/svg" viewBox="0 0 576 512"><!--! Font Awesome Pro 6.5.2 by @fontawesome - https://fontawesome.com License - https://fontawesome.com/license (Commercial License) Copyright 2024 Fonticons, Inc. --><path d="M576 32V64v96H512v32h64V376c0 75.1-60.9 136-136 136h-8c-70.7 0-128-57.3-128-128V352h64v32c0 35.3 28.7 64 64 64h8c39.8 0 72-32.2 72-72V64 32h64zM0 64H448V288H272l-32-64H208l-32 64H0V64z"/></svg>

<svg xmlns="http://www.w3.org/2000/svg" viewBox="0 0 576 512"><!--! Font Awesome Pro 6.6.0 by @fontawesome - https://fontawesome.com License - https://fontawesome.com/license (Commercial License) Copyright 2024 Fonticons, Inc. --><path d="M576 32l0 32 0 96-64 0 0 32 64 0 0 184c0 75.1-60.9 136-136 136l-8 0c-70.7 0-128-57.3-128-128l0-32 64 0 0 32c0 35.3 28.7 64 64 64l8 0c39.8 0 72-32.2 72-72l0-312 0-32 64 0zM0 64l448 0 0 224-176 0-32-64-32 0-32 64L0 288 0 64z"/></svg>
